src/assets/svg/background-users.svg

<svg height="88" viewBox="0 0 403 88" width="403" xmlns="http://www.w3.org/2000/svg"><g fill="none" fill-rule="evenodd"><path d="m0 0v43.809519l45.3890785 44.190481h357.6109215v-44.190481l-45.389078-43.809519z" fill="#c3c3c3"/><path d="m93.8113947 53.707858c0-.9693116-.0442579.0390691 0 0m12.1870923 4.0837136c0-2.2423352-.8409-5.691248-4.621262-7.8534489-1.5734248-.9000139-3.3854452-.1759533-5.5342227 1.7290193l-2.0316076 2.0418567v12.2502852h8.1244443c3.071952 0 4.062648-1.1207398 4.062648-4.0839987.003404-.0322249 0-4.0480667 0-4.0837136m-52.8098817-4.0837136c.0442579.0390691 0-.9693116 0 0m-7.5658304-3.7697353c-3.7800781 2.1622009-4.6212618 5.6111137-4.6212618 7.8534489 0 .0356469-.0034045 4.0514887 0 4.0837136 0 2.9632589.9906959 4.082858 4.0626478 4.082858h8.1244444v-12.2502852l-2.0313239-2.040716c-2.1487775-1.9049726-3.9607979-2.6290332-5.5345065-1.7290193m48.2064932-4.4225021c1.629031 0 6.0874465-2.1242725 6.0874465-6.5333713v-3.2661153c0-4.4090989-3.2160737-6.5333714-6.0874465-6.5333714-2.7760481 0-6.0874464 2.1242725-6.0874464 6.5333714v3.2661153c0 4.4090988 4.5446616 6.5333713 6.0874464 6.5333713m-4.1503124 8.168853c-.0034045-.0322248-.0121993-.0624534-.0156038-.0935375-.0476623-.3855573-.1205744-.7608483-.2215731-1.1295803 0-.0034221 0-.0068442-.0034045-.0099811-.2127783-.7833772-.5716645-1.5373813-1.1081496-2.2805487v-.003137c-.8789164-1.2231178-2.2052347-2.4707607-4.3608211-3.6884603-1.1393571-.6427856-1.6400955-.9379423-2.345101-.9379423-1.1203489 0-2.0977108.8754889-3.7446151 2.3960448h-.0034045l-1.4982432 1.3848124c-.0530527.0513316-1.6690333 2.3449984-2.8778979 2.3449984-1.2091484 0-2.8248453-2.2936668-2.8781817-2.3449984l-1.4982432-1.3848124h-.0034045c-1.6469043-1.5205559-2.6242662-2.3960448-3.7446151-2.3960448-.7047218 0-1.3331272.2951567-2.345101.9379423-2.0889159 1.3257811-3.4819047 2.4630611-4.3574167 3.6850382l-.0034044.0011407c-.0031208.0034221-.0031208.0076998-.0065252.0111219-.5296762.7374639-.8854416 1.4871904-1.0970851 2.2645788-.0034045.0068443-.0068089.014544-.0102134.0225289-.0984454.3664506-.1716412.7371788-.2181687 1.1181733-.0034045.0356469-.0133341.0692976-.0167386.1038038-.0442579.4055197-.0697913.818739-.0697913 1.247643 0 .0479095-.0011348 8.9416787 0 8.9830291 0 2.9028017 1.0882903 4.0837136 4.0629315 4.0837136h24.3730495c2.9998909 0 4.0626478-1.1173177 4.0626478-4.0837136 0-.0413504-.0011348-8.9351196-.0011348-8.9830291 0-.428904-.0255334-.8421233-.0697913-1.2487837m-36.4727608-8.168853c1.6293147 0 6.0874465-2.1242725 6.0874465-6.5333713v-3.2661153c0-4.4090989-3.21579-6.5333714-6.0874465-6.5333714-2.776048 0-6.0874464 2.1242725-6.0874464 6.5333714v3.2661153c0 4.4090988 4.5449453 6.5333713 6.0874464 6.5333713m20.293947-1.9882437c5.6973528 0 10.1291-5.9399211 10.1291-12.0888759v-1.9272162c0-6.147814-4.4317472-10.5112848-10.1291-10.5112848-5.6984877 0-10.1291001 4.3623301-10.1291001 10.5112848v1.9272162c0 6.1489548 4.4306124 12.0888759 10.1291001 12.0888759" fill="#626262"/></g></svg>

<?xml version="1.0" encoding="UTF-8" standalone="no"?>
<svg width="403px" height="88px" viewBox="0 0 403 88" version="1.1" xmlns="http://www.w3.org/2000/svg" xmlns:xlink="http://www.w3.org/1999/xlink">
    <!-- Generator: Sketch 3.6.1 (26313) - http://www.bohemiancoding.com/sketch -->
    <title>background-users</title>
    <desc>Created with Sketch.</desc>
    <defs></defs>
    <g id="Page-1" stroke="none" stroke-width="1" fill="none" fill-rule="evenodd">
        <g id="background-users">
            <path d="M0,-1.42108547e-14 L0,43.809519 L45.3890785,88 L403,88 L403,43.809519 L357.610922,-1.42108547e-14 L0,-1.42108547e-14 Z" id="Page-1" fill="#C3C3C3"></path>
            <path d="M93.8113947,53.707858 C93.8113947,52.7385464 93.7671368,53.7469271 93.8113947,53.707858 M105.998487,57.7915716 C105.998487,55.5492364 105.157587,52.1003236 101.377225,49.9381227 C99.8038002,49.0381088 97.9917798,49.7621694 95.8430023,51.667142 L93.8113947,53.7089987 L93.8113947,65.9592839 L101.935839,65.9592839 C105.007791,65.9592839 105.998487,64.8385441 105.998487,61.8752852 C106.001891,61.8430603 105.998487,57.8272185 105.998487,57.7915716 M53.1886053,53.707858 C53.2328632,53.7469271 53.1886053,52.7385464 53.1886053,53.707858 M45.6227749,49.9381227 C41.8426968,52.1003236 41.0015131,55.5492364 41.0015131,57.7915716 C41.0015131,57.8272185 40.9981086,61.8430603 41.0015131,61.8752852 C41.0015131,64.8385441 41.992209,65.9581432 45.0641609,65.9581432 L53.1886053,65.9581432 L53.1886053,53.707858 L51.1572814,51.667142 C49.0085039,49.7621694 47.1964835,49.0381088 45.6227749,49.9381227 M93.8292681,45.5156206 C95.4582991,45.5156206 99.9167146,43.3913481 99.9167146,38.9822493 L99.9167146,35.716134 C99.9167146,31.3070351 96.7006409,29.1827626 93.8292681,29.1827626 C91.05322,29.1827626 87.7418217,31.3070351 87.7418217,35.716134 L87.7418217,38.9822493 C87.7418217,43.3913481 92.2864833,45.5156206 93.8292681,45.5156206 M89.6789557,53.6844736 C89.6755512,53.6522488 89.6667564,53.6220202 89.6633519,53.5909361 C89.6156896,53.2053788 89.5427775,52.8300878 89.4417788,52.4613558 C89.4417788,52.4579337 89.4417788,52.4545116 89.4383743,52.4513747 C89.225596,51.6679975 88.8667098,50.9139934 88.3302247,50.170826 L88.3302247,50.167689 C87.4513083,48.9445712 86.12499,47.6969283 83.9694036,46.4792287 C82.8300465,45.8364431 82.3293081,45.5412864 81.6243026,45.5412864 C80.5039537,45.5412864 79.5265918,46.4167753 77.8796875,47.9373312 L77.876283,47.9373312 L76.3780398,49.3221436 C76.3249871,49.3734752 74.7090065,51.667142 73.5001419,51.667142 C72.2909935,51.667142 70.6752966,49.3734752 70.6219602,49.3221436 L69.123717,47.9373312 L69.1203125,47.9373312 C67.4734082,46.4167753 66.4960463,45.5412864 65.3756974,45.5412864 C64.6709756,45.5412864 64.0425702,45.8364431 63.0305964,46.4792287 C60.9416805,47.8050098 59.5486917,48.9422898 58.6731797,50.1642669 L58.6697753,50.1654076 C58.6666545,50.1688297 58.6666545,50.1731074 58.6632501,50.1765295 C58.1335739,50.9139934 57.7778085,51.6637199 57.566165,52.4411083 C57.5627605,52.4479526 57.5593561,52.4556523 57.5559516,52.4636372 C57.4575062,52.8300878 57.3843104,53.200816 57.3377829,53.5818105 C57.3343784,53.6174574 57.3244488,53.6511081 57.3210443,53.6856143 C57.2767864,54.091134 57.251253,54.5043533 57.251253,54.9332573 C57.251253,54.9811668 57.2501182,63.874936 57.251253,63.9162864 C57.251253,66.8190881 58.3395433,68 61.3141845,68 L85.687234,68 C88.6871249,68 89.7498818,66.8826823 89.7498818,63.9162864 C89.7498818,63.874936 89.748747,54.9811668 89.748747,54.9332573 C89.748747,54.5043533 89.7232136,54.091134 89.6789557,53.6844736 M53.2061949,45.5156206 C54.8355096,45.5156206 59.2936414,43.3913481 59.2936414,38.9822493 L59.2936414,35.716134 C59.2936414,31.3070351 56.0778514,29.1827626 53.2061949,29.1827626 C50.4301469,29.1827626 47.1187485,31.3070351 47.1187485,35.716134 L47.1187485,38.9822493 C47.1187485,43.3913481 51.6636938,45.5156206 53.2061949,45.5156206 M73.5001419,43.5273769 C79.1974947,43.5273769 83.6292419,37.5874558 83.6292419,31.438501 L83.6292419,29.5112848 C83.6292419,23.3634708 79.1974947,19 73.5001419,19 C67.8016542,19 63.3710418,23.3623301 63.3710418,29.5112848 L63.3710418,31.438501 C63.3710418,37.5874558 67.8016542,43.5273769 73.5001419,43.5273769" id="Fill-1" fill="#626262"></path>
        </g>
    </g>
</svg>
